svg/table_pivot.svg

<svg xmlns="http://www.w3.org/2000/svg" viewBox="0 0 24 24"><path d="M22 15h-2v3c0 1.11-.89 2-2 2h-3v2l-3-3 3-3v2h3v-3h-2l3-3zm0-11v4c0 1.1-.9 2-2 2H10v10c0 1.1-.9 2-2 2H4c-1.1 0-2-.9-2-2V4c0-1.1.9-2 2-2h16c1.1 0 2 .9 2 2M4 8h4V4H4zm0 2v4h4v-4zm4 10v-4H4v4zm6-12V4h-4v4zm6-4h-4v4h4z"/></svg>

<svg xmlns="http://www.w3.org/2000/svg" id="mdi-table-pivot" viewBox="0 0 24 24"><path d="M22 15H20V18C20 19.11 19.11 20 18 20H15V22L12 19L15 16V18H18V15H16L19 12L22 15M22 4V8C22 9.1 21.1 10 20 10H10V20C10 21.1 9.1 22 8 22H4C2.9 22 2 21.1 2 20V4C2 2.9 2.9 2 4 2H20C21.1 2 22 2.9 22 4M4 8H8V4H4V8M4 10V14H8V10H4M8 20V16H4V20L8 20M14 8V4H10V8H14M20 4L20 4H16V8H20L20 4Z" /></svg>
